src/assets-svg/google.svg

<svg width="13" height="14" viewBox="0 0 13 14" fill="none" xmlns="http://www.w3.org/2000/svg">
<path d="M12.3975 5.99644C12.4523 5.99644 12.4968 6.04091 12.4968 6.09576V7.13853C12.4968 7.52881 12.4605 7.91042 12.391 8.28061C11.8531 11.156 9.31991 13.3291 6.28349 13.3081C2.8764 13.2847 0.149699 10.5318 0.157242 7.12462C0.164737 3.7236 2.92422 0.96875 6.32699 0.96875C7.99411 0.96875 9.50672 1.63012 10.6173 2.70443C10.6574 2.74321 10.6584 2.80713 10.6189 2.84655L9.14371 4.32178C9.10573 4.35976 9.04437 4.36075 9.00545 4.32371C8.30843 3.66024 7.36537 3.25292 6.32699 3.25292C4.18273 3.25292 2.45604 4.96734 2.44148 7.11156C2.42685 9.26985 4.17213 11.0241 6.32699 11.0241C8.07538 11.0241 9.55415 9.86911 10.0418 8.28061H6.42631C6.37146 8.28061 6.32699 8.23614 6.32699 8.18129V6.09574C6.32699 6.04088 6.37146 5.99642 6.42631 5.99642H12.3975V5.99644Z" fill="#2196F3"/>
<path d="M12.3976 5.99707H11.6528C11.7076 5.99707 11.7521 6.04154 11.7521 6.09639V7.13915C11.7521 7.52944 11.7159 7.91105 11.6463 8.28124C11.1332 11.0244 8.80399 13.1283 5.95435 13.2978C6.06338 13.3042 6.17313 13.308 6.28366 13.3088C9.3201 13.3297 11.8533 11.1566 12.3912 8.28124C12.4607 7.91105 12.4969 7.52944 12.4969 7.13915V6.09637C12.4969 6.04154 12.4525 5.99707 12.3976 5.99707Z" fill="#1E88E5"/>
<path d="M2.79785 5.5113L0.924072 4.15742C1.9753 2.25609 4.00101 0.96875 6.32716 0.96875C7.99427 0.96875 9.50688 1.63012 10.6174 2.70443C10.6575 2.74321 10.6586 2.80713 10.6191 2.84656L9.14388 4.32178C9.10597 4.35969 9.04461 4.36087 9.00578 4.3239C8.30876 3.66031 7.36563 3.25294 6.32716 3.25294C4.76225 3.25294 3.41334 4.17802 2.79785 5.5113Z" fill="#F44336"/>
<path d="M2.25684 5.12044L2.79778 5.51128C3.35956 4.29434 4.5325 3.4179 5.92286 3.27414C5.93332 3.27301 5.94337 3.27163 5.95403 3.27062C5.83167 3.259 5.70767 3.25293 5.58225 3.25293C4.16857 3.25293 2.93655 3.9982 2.25684 5.12044Z" fill="#E53935"/>
<path d="M9.87262 2.70443C9.91272 2.74321 9.91376 2.80713 9.8743 2.84658L8.67691 4.04397C8.79163 4.13122 8.90143 4.22454 9.00564 4.32373C9.04454 4.36078 9.10592 4.35979 9.14391 4.32181L10.6191 2.84658C10.6586 2.80713 10.6575 2.74324 10.6174 2.70443C9.50691 1.63012 7.9943 0.96875 6.32719 0.96875C6.20208 0.96875 6.07796 0.972919 5.95471 0.98027C7.47402 1.07077 8.84537 1.71071 9.87262 2.70443Z" fill="#E53935"/>
<path d="M10.8531 11.3314C9.72636 12.5473 8.11552 13.3082 6.32716 13.3082C3.91164 13.3082 1.82038 11.9201 0.807617 9.89785L2.72061 8.58691C3.29466 10.0153 4.69323 11.024 6.32716 11.024C7.35254 11.024 8.2851 10.6268 8.97929 9.97779L10.8531 11.3314Z" fill="#4CAF50"/>
<path d="M2.72072 8.58691L2.15662 8.97347C2.81179 10.194 4.10019 11.024 5.58241 11.024C5.70776 11.024 5.83166 11.0179 5.95397 11.0063C4.48265 10.866 3.2505 9.9052 2.72072 8.58691Z" fill="#43A047"/>
<path d="M6.32718 13.3084C8.11554 13.3084 9.72639 12.5474 10.8531 11.3316L10.3941 11C9.33622 12.3166 7.74919 13.1901 5.95569 13.2971C6.0786 13.3045 6.20243 13.3084 6.32718 13.3084Z" fill="#43A047"/>
<path d="M2.44154 7.13931C2.44154 7.65126 2.54059 8.14014 2.7206 8.58779L0.807585 9.8987C0.391487 9.06845 0.157349 8.1312 0.157349 7.13931C0.157349 6.05806 0.435422 5.04183 0.92404 4.1582L2.79782 5.51208C2.56915 6.00689 2.44154 6.55834 2.44154 7.13931Z" fill="#FFC107"/>
<path d="M2.15647 8.97322L2.72057 8.58666C2.54056 8.13902 2.44151 7.65014 2.44151 7.13819C2.44151 6.55722 2.56912 6.00577 2.79779 5.51096L2.25685 5.12012C1.90558 5.7001 1.70171 6.38068 1.69675 7.11124C1.69217 7.78495 1.85911 8.41931 2.15647 8.97322Z" fill="#FFB300"/>
</svg>

<svg width="13" height="14" fill="none" xmlns="http://www.w3.org/2000/svg"><path d="M12.398 5.996a.1.1 0 0 1 .099.1v1.043a6.171 6.171 0 0 1-6.213 6.17A6.155 6.155 0 0 1 .156 7.124a6.17 6.17 0 0 1 10.46-4.42.1.1 0 0 1 .002.142L9.144 4.322a.099.099 0 0 1-.139.002 3.872 3.872 0 0 0-2.678-1.071 3.874 3.874 0 0 0-3.886 3.859 3.886 3.886 0 0 0 7.6 1.169H6.427a.1.1 0 0 1-.099-.1V6.096a.1.1 0 0 1 .1-.1h5.97Z" fill="#2196F3"/><path d="M12.398 5.997h-.745a.1.1 0 0 1 .1.1v1.042a6.172 6.172 0 0 1-5.798 6.159 6.172 6.172 0 0 0 6.543-6.159V6.096a.1.1 0 0 0-.1-.099Z" fill="#1E88E5"/><path d="M2.798 5.511.924 4.157A6.168 6.168 0 0 1 6.327.97a6.15 6.15 0 0 1 4.29 1.735.1.1 0 0 1 .002.143L9.144 4.322a.099.099 0 0 1-.138.002A3.886 3.886 0 0 0 2.798 5.51Z" fill="#F44336"/><path d="m2.257 5.12.54.391a3.888 3.888 0 0 1 3.126-2.237l.031-.003a3.874 3.874 0 0 0-3.697 1.85ZM9.873 2.704a.1.1 0 0 1 .001.143L8.677 4.044c.115.087.224.18.329.28.039.037.1.036.138-.002l1.475-1.475a.1.1 0 0 0-.002-.143A6.15 6.15 0 0 0 5.955.98c1.519.09 2.89.73 3.918 1.724Z" fill="#E53935"/><path d="M10.853 11.331A6.17 6.17 0 0 1 .808 9.897l1.913-1.31a3.887 3.887 0 0 0 6.258 1.39l1.874 1.354Z" fill="#4CAF50"/><path d="m2.72 8.587-.563.386a3.885 3.885 0 0 0 3.797 2.033 3.889 3.889 0 0 1-3.233-2.42ZM6.327 13.308c1.789 0 3.4-.76 4.526-1.976L10.394 11a6.158 6.158 0 0 1-4.438 2.297c.123.008.246.011.371.011Z" fill="#43A047"/><path d="M2.442 7.14c0 .511.099 1 .279 1.448L.808 9.898a6.141 6.141 0 0 1-.65-2.759c0-1.08.277-2.097.766-2.98l1.874 1.353a3.87 3.87 0 0 0-.356 1.627Z" fill="#FFC107"/><path d="m2.156 8.973.565-.386a3.874 3.874 0 0 1-.28-1.449c0-.58.128-1.132.357-1.627l-.541-.39a3.88 3.88 0 0 0-.56 1.99 3.869 3.869 0 0 0 .46 1.862Z" fill="#FFB300"/></svg>
